src/images_karasa_jaga_svg/cmd/sc_basicshapes.round-quadrat.svg

<svg height="16" viewBox="0 0 16 16" width="16" xmlns="http://www.w3.org/2000/svg" xmlns:xlink="http://www.w3.org/1999/xlink"><linearGradient id="a" gradientUnits="userSpaceOnUse" x1="59.971828" x2="59.971828" y1="128.45074" y2="-.450739"><stop offset="0" stop-color="#fff"/><stop offset=".46428573" stop-color="#fff"/><stop offset=".78125" stop-color="#f1f1f1"/><stop offset=".90625" stop-color="#eaeaea"/><stop offset="1" stop-color="#dfdfdf"/></linearGradient><linearGradient id="b" gradientUnits="userSpaceOnUse" x1="7.990234" x2="120.00977" y1="64" y2="64"><stop offset="0" stop-color="#7c9fcf"/><stop offset=".5" stop-color="#7c9ece"/><stop offset="1" stop-color="#7b9dcf"/></linearGradient><g stroke-width="1.157932" transform="scale(.125)"><path d="m33.25 7.9902344c-13.543392 0-25.2597656 10.5115876-25.2597656 24.0097656v64c0 13.49818 11.7163736 24.00977 25.2597656 24.00977h61.5c13.54339 0 25.25977-10.51159 25.25977-24.00977v-64c0-13.498178-11.71638-24.0097656-25.25977-24.0097656z" fill="url(#b)"/><path d="m33.25 16c-9.5565 0-17.25 7.136-17.25 16v64c0 8.864 7.6935 16 17.25 16h61.5c9.5565 0 17.25-7.136 17.25-16v-64c0-8.864-7.6935-16-17.25-16z" fill="url(#a)"/></g></svg>

<?xml version="1.0" encoding="UTF-8" standalone="no"?>
<svg
   xmlns:dc="http://purl.org/dc/elements/1.1/"
   xmlns:cc="http://creativecommons.org/ns#"
   xmlns:rdf="http://www.w3.org/1999/02/22-rdf-syntax-ns#"
   xmlns:svg="http://www.w3.org/2000/svg"
   xmlns="http://www.w3.org/2000/svg"
   xmlns:xlink="http://www.w3.org/1999/xlink"
   xmlns:sodipodi="http://sodipodi.sourceforge.net/DTD/sodipodi-0.dtd"
   xmlns:inkscape="http://www.inkscape.org/namespaces/inkscape"
   height="128"
   viewBox="0 0 128 128"
   width="128"
   version="1.1"
   id="svg31"
   sodipodi:docname="sc_basicshapes.round-quadrat.svg"
   inkscape:version="0.92.3 (unknown)"
   inkscape:export-filename="/home/rizmut/Dokumen/Rizmut/Github/libreoffice-style-karasa-jaga/build/images_karasa_jaga/cmd/sc_basicshapes.round-quadrat.png"
   inkscape:export-xdpi="12"
   inkscape:export-ydpi="12">
  <metadata
     id="metadata37">
    <rdf:RDF>
      <cc:Work
         rdf:about="">
        <dc:format>image/svg+xml</dc:format>
        <dc:type
           rdf:resource="http://purl.org/dc/dcmitype/StillImage" />
        <dc:title></dc:title>
      </cc:Work>
    </rdf:RDF>
  </metadata>
  <defs
     id="defs35">
    <linearGradient
       id="linearGradient3369">
      <stop
         id="stop3372"
         offset="0"
         style="stop-color:#ffffff;stop-opacity:1;" />
      <stop
         style="stop-color:#ffffff;stop-opacity:1;"
         offset="0.46428573"
         id="stop3374" />
      <stop
         style="stop-color:#f1f1f1;stop-opacity:1;"
         offset="0.78125"
         id="stop3376" />
      <stop
         id="stop3378"
         offset="0.90625"
         style="stop-color:#eaeaea;stop-opacity:1;" />
      <stop
         id="stop3384"
         offset="1"
         style="stop-color:#dfdfdf;stop-opacity:1;" />
    </linearGradient>
    <linearGradient
       id="linearGradient7422">
      <stop
         style="stop-color:#7c9fcf;stop-opacity:1"
         offset="0"
         id="stop7424" />
      <stop
         id="stop5348"
         offset="0.5"
         style="stop-color:#7c9ece;stop-opacity:1" />
      <stop
         id="stop7426"
         offset="1"
         style="stop-color:#7b9dcf;stop-opacity:1" />
    </linearGradient>
    <linearGradient
       inkscape:collect="always"
       xlink:href="#linearGradient3369"
       id="linearGradient891"
       x1="60"
       y1="128"
       x2="60"
       y2="-5.6843419e-14"
       gradientUnits="userSpaceOnUse"
       gradientTransform="matrix(1.0070428,0,0,1.0070428,-0.45073921,-0.45073921)" />
    <linearGradient
       inkscape:collect="always"
       xlink:href="#linearGradient7422"
       id="linearGradient1464"
       x1="7.9902344"
       y1="64"
       x2="120.00977"
       y2="64"
       gradientUnits="userSpaceOnUse" />
  </defs>
  <sodipodi:namedview
     pagecolor="#ffffff"
     bordercolor="#666666"
     borderopacity="1"
     objecttolerance="10"
     gridtolerance="10"
     guidetolerance="10"
     inkscape:pageopacity="0"
     inkscape:pageshadow="2"
     inkscape:window-width="1366"
     inkscape:window-height="706"
     id="namedview33"
     showgrid="true"
     inkscape:zoom="2.8284272"
     inkscape:cx="154.03018"
     inkscape:cy="59.112075"
     inkscape:window-x="0"
     inkscape:window-y="0"
     inkscape:window-maximized="1"
     inkscape:current-layer="svg31"
     inkscape:snap-global="false">
    <inkscape:grid
       type="xygrid"
       id="grid844"
       spacingx="8"
       spacingy="8"
       empspacing="2" />
  </sodipodi:namedview>
  <linearGradient
     id="a">
    <stop
       offset="0"
       stop-color="#f9f9fa"
       id="stop2" />
    <stop
       offset="1"
       stop-color="#f9f9fa"
       stop-opacity="0"
       id="stop4" />
  </linearGradient>
  <linearGradient
     id="b"
     gradientUnits="userSpaceOnUse"
     x1="42.276669"
     x2="-13.469376"
     xlink:href="#a"
     y1="50.867565"
     y2="104.97279" />
  <linearGradient
     id="c"
     gradientUnits="userSpaceOnUse"
     x1="-1.817377"
     x2="2.172436"
     xlink:href="#a"
     y1="55.003803"
     y2="116.784" />
  <path
     sodipodi:type="inkscape:offset"
     inkscape:radius="8.0088425"
     inkscape:original="M 33.25 16 C 23.6935 16 16 23.136 16 32 L 16 96 C 16 104.864 23.6935 112 33.25 112 L 94.75 112 C 104.3065 112 112 104.864 112 96 L 112 32 C 112 23.136 104.3065 16 94.75 16 L 33.25 16 z "
     style="fill:url(#linearGradient1464);fill-opacity:1.0;stroke-width:1.15793192"
     id="path1454"
     d="M 33.25,7.9902344 C 19.706608,7.9902344 7.9902344,18.501822 7.9902344,32 v 64 c 0,13.49818 11.7163736,24.00977 25.2597656,24.00977 h 61.5 c 13.54339,0 25.25977,-10.51159 25.25977,-24.00977 V 32 C 120.00977,18.501822 108.29339,7.9902344 94.75,7.9902344 Z" />
  <path
     style="fill:url(#linearGradient891);fill-opacity:1;stroke-width:1.15793192"
     d="M 33.25 16 C 23.6935 16 16 23.136 16 32 L 16 96 C 16 104.864 23.6935 112 33.25 112 L 94.75 112 C 104.3065 112 112 104.864 112 96 L 112 32 C 112 23.136 104.3065 16 94.75 16 L 33.25 16 z "
     id="path23" />
</svg>
